X: 1213
T: Sheehan's Reel
M:C|
L:1/8
R:Reel
B:O'Neill's 1213
N:Collected by Fielding
Z:Transcribed by Trish O'Neil
K:G
D|G2(BG) DGBG|ABcA BGGB|A^GAB cBcA|EAAG FDEF|
G2(BG) DGBd|cBAB cdef|gedBc2(Bc)|dBcA (BG)G2||
f|g2(bg) dgbg|gbag fdde|=f2af dfaf|gbag =fdd^f|
g2(bg) dgbg|gbag fdef|{a}gedBc2(Bc)|dB{d}cA (BG)G2||


